icons/cobol.svg

<svg style="clip-rule:evenodd;fill-rule:evenodd;stroke-linejoin:round;stroke-miterlimit:2" version="1.1" viewBox="0 0 24 24" xml:space="preserve" xmlns="http://www.w3.org/2000/svg">
    
    <g transform="matrix(.94546 0 0 .94546 .65453 .65453)"><path d="m13.593 1.116c-1.056-0.155-2.13-0.155-3.186 0l-0.697 1.819c-0.879 0.222-1.722 0.571-2.501 1.036l-1.779-0.793c-0.856 0.637-1.615 1.396-2.252 2.252l0.793 1.779c-0.465 0.779-0.814 1.622-1.036 2.501l-1.819 0.697c-0.155 1.056-0.155 2.13 0 3.186l1.819 0.697c0.222 0.879 0.571 1.722 1.036 2.501l-0.793 1.779c0.637 0.856 1.396 1.615 2.252 2.252l1.779-0.793c0.779 0.465 1.622 0.814 2.501 1.036l0.697 1.819c1.056 0.155 2.13 0.155 3.186 0l0.697-1.819c0.879-0.222 1.722-0.571 2.501-1.036l1.779 0.793c0.856-0.637 1.615-1.396 2.252-2.252l-0.793-1.779c0.465-0.779 0.814-1.622 1.036-2.501l1.819-0.697c0.155-1.056 0.155-2.13 0-3.186l-1.819-0.697c-0.222-0.879-0.571-1.722-1.036-2.501l0.793-1.779c-0.637-0.856-1.396-1.615-2.252-2.252l-1.779 0.793c-0.779-0.465-1.622-0.814-2.501-1.036zm-1.593 3.835c3.89 0 7.049 3.159 7.049 7.049s-3.159 7.049-7.049 7.049-7.049-3.159-7.049-7.049 3.159-7.049 7.049-7.049z" style="fill:#0288d1"/><path d="m14.83 14.825c-0.724 0.726-1.725 1.175-2.83 1.175-2.208 0-4-1.792-4-4s1.792-4 4-4c1.105 0 2.106 0.449 2.83 1.175l-1.414 1.413c-0.362-0.363-0.863-0.588-1.416-0.588-1.104 0-2 0.896-2 2s0.896 2 2 2c0.553 0 1.054-0.225 1.416-0.588z" style="fill:#0288d1"/></g>
</svg>

<?xml version="1.0" encoding="UTF-8" standalone="no"?>
<!DOCTYPE svg PUBLIC "-//W3C//DTD SVG 1.1//EN" "http://www.w3.org/Graphics/SVG/1.1/DTD/svg11.dtd">
<svg width="100%" height="100%" viewBox="0 0 24 24" version="1.1" xmlns="http://www.w3.org/2000/svg" xmlns:xlink="http://www.w3.org/1999/xlink" xml:space="preserve" style="fill-rule:evenodd;clip-rule:evenodd;stroke-linejoin:round;stroke-miterlimit:2;">
    <path d="M13.593,1.116C12.537,0.961 11.463,0.961 10.407,1.116L9.71,2.935C8.831,3.157 7.988,3.506 7.209,3.971L5.43,3.178C4.574,3.815 3.815,4.574 3.178,5.43L3.971,7.209C3.506,7.988 3.157,8.831 2.935,9.71L1.116,10.407C0.961,11.463 0.961,12.537 1.116,13.593L2.935,14.29C3.157,15.169 3.506,16.012 3.971,16.791L3.178,18.57C3.815,19.426 4.574,20.185 5.43,20.822L7.209,20.029C7.988,20.494 8.831,20.843 9.71,21.065L10.407,22.884C11.463,23.039 12.537,23.039 13.593,22.884L14.29,21.065C15.169,20.843 16.012,20.494 16.791,20.029L18.57,20.822C19.426,20.185 20.185,19.426 20.822,18.57L20.029,16.791C20.494,16.012 20.843,15.169 21.065,14.29L22.884,13.593C23.039,12.537 23.039,11.463 22.884,10.407L21.065,9.71C20.843,8.831 20.494,7.988 20.029,7.209L20.822,5.43C20.185,4.574 19.426,3.815 18.57,3.178L16.791,3.971C16.012,3.506 15.169,3.157 14.29,2.935L13.593,1.116ZM12,4.951C15.89,4.951 19.049,8.11 19.049,12C19.049,15.89 15.89,19.049 12,19.049C8.11,19.049 4.951,15.89 4.951,12C4.951,8.11 8.11,4.951 12,4.951Z" style="fill:#0288d1;"/>
    <path d="M14.83,14.825C14.106,15.551 13.105,16 12,16C9.792,16 8,14.208 8,12C8,9.792 9.792,8 12,8C13.105,8 14.106,8.449 14.83,9.175L13.416,10.588C13.054,10.225 12.553,10 12,10C10.896,10 10,10.896 10,12C10,13.104 10.896,14 12,14C12.553,14 13.054,13.775 13.416,13.412L14.83,14.825Z" style="fill:#0288d1;"/>
</svg>
